SF_Symbols/cloud.hail.fill.svg

<?xml version="1.0" encoding="UTF-8"?>
<svg xmlns="http://www.w3.org/2000/svg" xmlns:xlink="http://www.w3.org/1999/xlink" width="24" height="24" viewBox="0 0 24 24" version="1.1">
<g id="surface1">
<path style=" stroke:none;fill-rule:nonzero;fill:rgb(100%,100%,100%);fill-opacity:1;" d="M 5.238281 15.472656 L 17.488281 15.472656 C 18.296875 15.472656 19.042969 15.332031 19.726562 15.050781 C 20.417969 14.765625 21.015625 14.371094 21.523438 13.863281 C 22.035156 13.359375 22.429688 12.773438 22.707031 12.109375 C 22.988281 11.445312 23.132812 10.734375 23.132812 9.976562 C 23.132812 9.1875 22.980469 8.464844 22.675781 7.804688 C 22.382812 7.140625 21.964844 6.566406 21.425781 6.078125 C 20.890625 5.585938 20.265625 5.203125 19.550781 4.933594 C 18.832031 4.664062 18.054688 4.53125 17.21875 4.53125 C 16.8125 3.71875 16.289062 3.015625 15.652344 2.417969 C 15.019531 1.8125 14.300781 1.34375 13.488281 1.015625 C 12.679688 0.6875 11.800781 0.523438 10.84375 0.523438 C 9.917969 0.523438 9.042969 0.695312 8.21875 1.035156 C 7.40625 1.371094 6.675781 1.839844 6.03125 2.4375 C 5.386719 3.035156 4.863281 3.734375 4.460938 4.53125 C 4.066406 5.324219 3.828125 6.179688 3.75 7.09375 C 3.152344 7.265625 2.613281 7.550781 2.140625 7.945312 C 1.667969 8.332031 1.292969 8.804688 1.015625 9.363281 C 0.738281 9.925781 0.601562 10.550781 0.601562 11.25 C 0.601562 12.027344 0.78125 12.738281 1.144531 13.382812 C 1.511719 14.019531 2.042969 14.53125 2.734375 14.910156 C 3.425781 15.285156 4.261719 15.472656 5.238281 15.472656 Z M 6.511719 19.027344 L 7.175781 17.863281 C 7.261719 17.71875 7.28125 17.566406 7.242188 17.40625 C 7.203125 17.25 7.113281 17.125 6.96875 17.03125 C 6.816406 16.949219 6.660156 16.925781 6.503906 16.972656 C 6.351562 17.019531 6.234375 17.113281 6.148438 17.261719 L 5.476562 18.453125 C 5.398438 18.59375 5.375 18.738281 5.40625 18.898438 C 5.449219 19.050781 5.542969 19.167969 5.695312 19.253906 C 5.84375 19.339844 5.996094 19.359375 6.148438 19.3125 C 6.304688 19.265625 6.425781 19.171875 6.511719 19.027344 Z M 10.816406 20.535156 L 12.355469 17.871094 C 12.441406 17.71875 12.464844 17.570312 12.425781 17.417969 C 12.386719 17.261719 12.292969 17.136719 12.148438 17.050781 C 11.996094 16.96875 11.84375 16.949219 11.683594 16.992188 C 11.53125 17.03125 11.414062 17.128906 11.328125 17.28125 L 9.78125 19.964844 C 9.699219 20.101562 9.679688 20.246094 9.71875 20.398438 C 9.761719 20.554688 9.855469 20.675781 10.007812 20.761719 C 10.152344 20.847656 10.300781 20.867188 10.460938 20.824219 C 10.617188 20.777344 10.738281 20.679688 10.816406 20.535156 Z M 16.855469 19.066406 L 17.515625 17.902344 C 17.601562 17.75 17.625 17.597656 17.585938 17.449219 C 17.546875 17.289062 17.453125 17.164062 17.308594 17.074219 C 17.15625 16.988281 17.003906 16.96875 16.84375 17.011719 C 16.695312 17.058594 16.574219 17.15625 16.488281 17.300781 L 15.820312 18.492188 C 15.738281 18.632812 15.71875 18.78125 15.75 18.9375 C 15.789062 19.089844 15.886719 19.207031 16.035156 19.292969 C 16.179688 19.371094 16.332031 19.386719 16.488281 19.34375 C 16.648438 19.300781 16.769531 19.210938 16.855469 19.066406 Z M 4.765625 21.96875 C 5.054688 21.96875 5.304688 21.859375 5.515625 21.640625 C 5.726562 21.429688 5.832031 21.175781 5.832031 20.882812 C 5.832031 20.597656 5.726562 20.351562 5.515625 20.140625 C 5.304688 19.929688 5.054688 19.824219 4.765625 19.824219 C 4.46875 19.824219 4.21875 19.929688 4.007812 20.140625 C 3.796875 20.351562 3.691406 20.597656 3.691406 20.882812 C 3.691406 21.175781 3.796875 21.429688 4.007812 21.640625 C 4.21875 21.859375 4.46875 21.96875 4.765625 21.96875 Z M 9.070312 23.476562 C 9.363281 23.476562 9.617188 23.367188 9.828125 23.152344 C 10.039062 22.941406 10.144531 22.6875 10.144531 22.390625 C 10.144531 22.109375 10.039062 21.863281 9.828125 21.652344 C 9.617188 21.441406 9.363281 21.335938 9.070312 21.335938 C 8.78125 21.335938 8.53125 21.441406 8.320312 21.652344 C 8.109375 21.863281 8.003906 22.109375 8.003906 22.390625 C 8.003906 22.6875 8.109375 22.941406 8.320312 23.152344 C 8.53125 23.367188 8.78125 23.476562 9.070312 23.476562 Z M 15.109375 22.007812 C 15.398438 22.007812 15.648438 21.898438 15.859375 21.679688 C 16.070312 21.46875 16.175781 21.21875 16.175781 20.921875 C 16.175781 20.632812 16.070312 20.382812 15.859375 20.171875 C 15.648438 19.960938 15.398438 19.855469 15.109375 19.855469 C 14.8125 19.855469 14.558594 19.960938 14.347656 20.171875 C 14.136719 20.382812 14.03125 20.632812 14.03125 20.921875 C 14.03125 21.21875 14.136719 21.46875 14.347656 21.679688 C 14.558594 21.898438 14.8125 22.007812 15.109375 22.007812 Z M 15.109375 22.007812 "/>
</g>
</svg>

<svg xmlns="http://www.w3.org/2000/svg" width="24" height="24"><path style="stroke:none;fill-rule:nonzero;fill:#fff;fill-opacity:1" d="M5.238 15.473h12.25c.809 0 1.555-.141 2.239-.422a5.48 5.48 0 0 0 2.98-2.942c.285-.675.43-1.398.426-2.132 0-.79-.153-1.512-.457-2.172a5.065 5.065 0 0 0-1.25-1.727 5.756 5.756 0 0 0-1.875-1.144 6.585 6.585 0 0 0-2.332-.403 7.367 7.367 0 0 0-1.567-2.113 6.77 6.77 0 0 0-2.164-1.402C12.68.687 11.801.523 10.844.523c-.926 0-1.801.172-2.625.512A7.34 7.34 0 0 0 4.46 4.531c-.399.801-.64 1.672-.711 2.563a4.35 4.35 0 0 0-1.61.851c-.472.387-.847.86-1.124 1.418-.278.563-.414 1.188-.414 1.887 0 .777.18 1.488.543 2.133.367.637.898 1.148 1.59 1.527.69.375 1.527.563 2.503.563Zm1.274 3.554.664-1.164c.082-.136.11-.3.066-.457a.62.62 0 0 0-.273-.375.604.604 0 0 0-.465-.058.596.596 0 0 0-.356.289l-.671 1.191a.63.63 0 0 0-.07.445c.042.153.136.27.288.356.137.086.301.105.453.058a.617.617 0 0 0 .364-.285Zm4.304 1.508 1.54-2.664a.588.588 0 0 0-.207-.82.604.604 0 0 0-.465-.059.573.573 0 0 0-.356.29l-1.547 2.683a.545.545 0 0 0-.062.433c.043.157.144.29.289.364.137.086.3.105.453.062a.583.583 0 0 0 .355-.289Zm6.04-1.469.66-1.164a.595.595 0 1 0-1.027-.602l-.669 1.192a.611.611 0 0 0-.07.445c.04.153.137.27.285.356a.59.59 0 0 0 .453.05c.157-.038.29-.14.367-.277ZM4.765 21.97c.289 0 .539-.11.75-.328.21-.211.316-.465.316-.758 0-.285-.105-.531-.316-.742-.211-.211-.461-.317-.75-.317a1.038 1.038 0 0 0-.758.317c-.211.21-.317.457-.317.742 0 .293.106.547.317.758.21.218.46.328.758.328Zm4.304 1.508c.293 0 .547-.11.758-.325.211-.21.317-.465.317-.761 0-.282-.106-.528-.317-.739-.2-.203-.473-.32-.758-.316-.289 0-.539.105-.75.316-.21.211-.316.457-.316.739 0 .297.105.55.316.761.211.215.461.325.75.325Zm6.04-1.47c.288 0 .538-.109.75-.327.21-.211.316-.461.316-.758 0-.29-.106-.54-.317-.75-.21-.211-.46-.317-.75-.317-.296 0-.55.106-.761.317-.211.21-.317.46-.317.75 0 .297.106.547.317.758.21.218.464.328.761.328Zm0 0"/></svg>
